X:314
T:
R:polska
S:Uppt. efter »Florsen» i Burs.
O:Gotland, Burs
M:3/4
L:1/16
K:F
F2AF G2BG FEDC|F2AF G2BG FEDC|F2FA c2ce f2a2|agbg fefd cABG|
F2AF G2BG FEDC|F2AF G2BG FEDC|F2F2 A2c2 f2a2|gbeg g4 f4:|
|:a3g fedc BAGA|F2a2 bagf g4|g2gf e2ed c2cB|Acfa bgeg f4|
f2af c2eg bgec|f2af c2eg f4|F2FA c2Ac f2a2|gbeg g4 f4:|

